**kern	**kern
*staff2	*staff1
*clefF4	*clefG2
*k[]	*k[]
*M2/4	*M2/4
*a:	*a:
=-	=-
8r	(8g 8gg
=105	=105
(8EL	8f#L 8ff#
8GJ	8gJ 8gg
8CL	8aL 8aa
8GJ)	8gJ) 8gg
=106	=106
(8DL	8f'L 8ff'
8GJ	8d'J 8dd'
8FL	8B'L 8b'
8GJ)	(8gJ 8gg
=107	=107
(8EL	8f#L 8ff#
8GJ	8gJ 8gg
8CL	8aL 8aa
8GJ)	8gJ) 8gg
=108	=108
(8DL	8f'L 8ff'
8GJ	8d'J 8dd'
8FL	8B'L 8b'
8GJ)	(8gJ 8gg
=109	=109
(8EL	8f#L 8ff#
8cJ	8gJ 8gg
8FL	8g#L 8gg#
8cJ)	8aJ 8aa
=110	=110
(8FL 8A-	8b-L 8bb-
8dJ	8bJ 8bb
8F#L 8A	8ddL 8ddd
8e-J)	8ccJ) 8ccc
=111	=111
(8GL 8c	(8f#L 8ff#
8eJ	8gJ) 8gg
8GL 8B	8r
8dJ)	8g 8gg
=112	=112
8cL	4cc
8GJ	.
8C	8r
=	=
*-	*-
